X:1
T: Miss Dalrymple
C:
R:Jig
Q:180
K:Bb
M:6/8
L:1/16
d2|B3cB2 F2D2F2|B6F4B2|c4d2 e4d2|c2d2c2 A2B2c2|B3cB2 F2D2F2|G2E2F2 G2A2B2|c2e2d2 c2B2A2|B6B,4d2|
B3cB2 F2D2F2|B6F4B2|c4d2 e4d2|c2d2c2 A2B2c2|B3cB2 F2D2F2|G2E2F2 G2A2B2|c2e2d2 c2B2A2|B6B,4B2|
F2B2d2 f2d2B2|A2c2e2 g2e2c2|d2B2f2 e2c2a2|b2f2e2 d2e2c2|B3dB2 F2D2F2|B2F2D2 C2c2e2|d2f2B2 e2d2c2|B6B,4B2|
F2B2d2 f2d2B2|A2c2e2 g2e2c2|d2B2f2 e2c2a2|b2f2e2 d2e2c2|B3dB2 F2D2F2|B2F2D2 C2c2e2|d2f2B2 e2d2c2|B6B,4||
